assets/icons/24px/outline/locked-24px.svg

<svg width="24" height="24" viewBox="0 0 24 24" fill="none" xmlns="http://www.w3.org/2000/svg">
<path d="M19.4142 20.4142L20.1213 21.1213L19.4142 20.4142ZM4.58579 20.4142L3.87868 21.1213L4.58579 20.4142ZM19.4142 10.5858L20.1213 9.87868L19.4142 10.5858ZM8 11H16V9H8V11ZM5 17V14H3V17H5ZM16 20H8V22H16V20ZM19 14V17H21V14H19ZM16 22C16.9145 22 17.701 22.0021 18.3278 21.9179C18.9833 21.8297 19.6117 21.631 20.1213 21.1213L18.7071 19.7071C18.631 19.7832 18.495 19.8774 18.0613 19.9357C17.5988 19.9979 16.9711 20 16 20V22ZM19 17C19 17.9711 18.9979 18.5988 18.9357 19.0613C18.8774 19.495 18.7832 19.631 18.7071 19.7071L20.1213 21.1213C20.631 20.6117 20.8297 19.9833 20.9179 19.3278C21.0021 18.701 21 17.9145 21 17H19ZM3 17C3 17.9145 2.99788 18.701 3.08214 19.3278C3.17027 19.9833 3.36902 20.6117 3.87868 21.1213L5.29289 19.7071C5.21677 19.631 5.12262 19.495 5.06431 19.0613C5.00212 18.5988 5 17.9711 5 17H3ZM8 20C7.02892 20 6.40121 19.9979 5.9387 19.9357C5.50496 19.8774 5.36902 19.7832 5.29289 19.7071L3.87868 21.1213C4.38834 21.631 5.01669 21.8297 5.67221 21.9179C6.29896 22.0021 7.08546 22 8 22V20ZM16 11C16.9711 11 17.5988 11.0021 18.0613 11.0643C18.495 11.1226 18.631 11.2168 18.7071 11.2929L20.1213 9.87868C19.6117 9.36902 18.9833 9.17027 18.3278 9.08214C17.701 8.99788 16.9145 9 16 9V11ZM21 14C21 13.0855 21.0021 12.299 20.9179 11.6722C20.8297 11.0167 20.631 10.3883 20.1213 9.87868L18.7071 11.2929C18.7832 11.369 18.8774 11.505 18.9357 11.9387C18.9979 12.4012 19 13.0289 19 14H21ZM8 9C7.08546 9 6.29896 8.99788 5.67221 9.08214C5.01669 9.17027 4.38834 9.36902 3.87868 9.87868L5.29289 11.2929C5.36902 11.2168 5.50496 11.1226 5.9387 11.0643C6.40121 11.0021 7.02892 11 8 11V9ZM5 14C5 13.0289 5.00212 12.4012 5.06431 11.9387C5.12262 11.505 5.21677 11.369 5.29289 11.2929L3.87868 9.87868C3.36902 10.3883 3.17027 11.0167 3.08214 11.6722C2.99788 12.299 3 13.0855 3 14H5Z" fill="white"/>
<path d="M16 6L15 6V6H16ZM8 10C9 10 9 10 9 9.99998C9 9.99997 9 9.99996 9 9.99993C9 9.99989 9 9.99982 9 9.99973C9 9.99954 9 9.99927 9 9.99891C9 9.99818 9 9.99709 9 9.99564C9 9.99274 9 9.9884 9 9.98267C9 9.97119 9 9.9541 9 9.93164C9 9.88672 9 9.82031 9 9.73438C9 9.5625 9 9.3125 9 9.00001C9 8.37502 9 7.50003 9 6.50006H7C7 7.50003 7 8.37501 7 9.00001C7 9.3125 7 9.5625 7 9.73438C7 9.82031 7 9.88672 7 9.93164C7 9.9541 7 9.97119 7 9.98267C7 9.9884 7 9.99274 7 9.99564C7 9.99708 7 9.99818 7 9.9989C7 9.99927 7 9.99954 7 9.99972C7 9.99982 7 9.99988 7 9.99993C7 9.99995 7 9.99997 7 9.99998C7 9.99999 7 10 8 10ZM9 6.50006C9 5.32637 9.44699 4.78195 9.94197 4.4744C10.5144 4.11872 11.2935 4 12 4V2C11.1444 2 9.92347 2.13128 8.88646 2.77561C7.77196 3.46808 7 4.67368 7 6.50006H9ZM12 4C12.7057 4 13.5135 4.11778 14.1082 4.44106C14.6318 4.72574 15 5.1607 15 6L17 6C17 4.3393 16.1493 3.27426 15.0634 2.68394C14.0486 2.13222 12.8564 2 12 2V4ZM15 6V10H17V6H15Z" fill="white"/>
</svg>

<svg width="24" height="24" fill="none" xmlns="http://www.w3.org/2000/svg"><path d="M19.414 20.414l.707.707-.707-.707zm-14.828 0l-.707.707.707-.707zm14.828-9.828l.707-.707-.707.707zM8 11h8V9H8v2zm-3 6v-3H3v3h2zm11 3H8v2h8v-2zm3-6v3h2v-3h-2zm-3 8c.915 0 1.701.002 2.328-.082.655-.088 1.284-.287 1.793-.797l-1.414-1.414c-.076.076-.212.17-.646.229-.462.062-1.09.064-2.061.064v2zm3-5c0 .971-.002 1.599-.064 2.061-.059.434-.153.57-.229.646l1.414 1.414c.51-.51.709-1.138.797-1.793C21.002 18.7 21 17.915 21 17h-2zM3 17c0 .915-.002 1.701.082 2.328.088.655.287 1.284.797 1.793l1.414-1.414c-.076-.076-.17-.212-.229-.646C5.002 18.6 5 17.971 5 17H3zm5 3c-.971 0-1.599-.002-2.061-.064-.434-.059-.57-.153-.646-.229l-1.414 1.414c.51.51 1.138.709 1.793.797C6.3 22.002 7.085 22 8 22v-2zm8-9c.971 0 1.599.002 2.061.064.434.059.57.153.646.229l1.414-1.414c-.51-.51-1.138-.709-1.793-.797C17.7 8.998 16.915 9 16 9v2zm5 3c0-.915.002-1.701-.082-2.328-.088-.655-.287-1.284-.797-1.793l-1.414 1.414c.076.076.17.212.229.646.062.462.064 1.09.064 2.061h2zM8 9c-.915 0-1.701-.002-2.328.082-.655.088-1.284.287-1.793.797l1.414 1.414c.076-.076.212-.17.646-.229C6.4 11.002 7.029 11 8 11V9zm-3 5c0-.971.002-1.599.064-2.061.059-.434.153-.57.229-.646L3.879 9.879c-.51.51-.709 1.138-.797 1.793C2.998 12.3 3 13.085 3 14h2z" fill="#fff"/><path d="M16 6h-1 1zm-8 4h1v-.001-.003-.013-.051-.198V9 6.5H7V10h1zm1-3.5c0-1.174.447-1.718.942-2.026C10.514 4.12 11.293 4 12 4V2c-.856 0-2.077.131-3.114.776C7.772 3.468 7 4.674 7 6.5h2zM12 4c.706 0 1.514.118 2.108.441.524.285.892.72.892 1.559h2c0-1.66-.85-2.726-1.937-3.316C14.05 2.132 12.856 2 12 2v2zm3 2v4h2V6h-2z" fill="#fff"/></svg>
